zondicons/svg/repost.svg

<svg width="20px" height="20px" viewBox="0 0 20 20" version="1.1" xmlns="http://www.w3.org/2000/svg" xmlns:xlink="http://www.w3.org/1999/xlink"><title>repost</title><desc>Created with Sketch.</desc><defs></defs><g id="Page-1" stroke="none" stroke-width="1" fill="none" fill-rule="evenodd"><g id="repost" fill="#000000"><path d="M4.99201702,4 C3.8918564,4 3,4.88670635 3,5.99810135 L3,12 L0,12 L4,16 L8,12 L5,12 L5,6 L12,6 L14,4 L4.99201702,4 Z M15,8 L12,8 L16,4 L20,8 L17,8 L17,14.0018986 C17,15.1054196 16.0998238,16 15.007983,16 L6,16 L8,14 L15,14 L15,8 Z" id="Combined-Shape"></path></g></g></svg>

<svg xmlns="http://www.w3.org/2000/svg" viewBox="0 0 20 20"><path d="M5 4a2 2 0 0 0-2 2v6H0l4 4 4-4H5V6h7l2-2H5zm10 4h-3l4-4 4 4h-3v6a2 2 0 0 1-2 2H6l2-2h7V8z"/></svg>
